!!!COM: Palestrina, Giovanni Perluigi da
!!!OPR: Missa In festis Apostolorum (II)
!!!OMD: Credo
!!!OTL: Qui cum Patre
**kern	**kern	**kern	**kern	**kern
*Ibass	*Itenor	*Itenor	*Icalto	*Icant
!Bassus	!Tenor 2	!Tenor 1	!Altus	!Cantus
*clefF4	*clefGv2	*clefGv2	*clefG2	*clefG2
*k[]	*k[]	*k[]	*k[]	*k[]
*D:dor	*D:dor	*D:dor	*D:dor	*D:dor
*M3/2	*M3/2	*M3/2	*M3/2	*M3/2
=141	=141	=141	=141	=141
1AA	1c	1A	1e	1r
2D	2A	2F	2d	2r
=142	=142	=142	=142	=142
1C	1c	1G	1e	1r
2AA	2c	2A	2e	2r
=143	=143	=143	=143	=143
2GG#	2B	2B	2e	1r
2AA	2A	2c	2e	.
2E	2G#	2B	2e	2r
=144	=144	=144	=144	=144
2AA	2A	2A	2e	1a
2r	2d	2r	2f	.
2r	2B	2r	2d	2g
=145	=145	=145	=145	=145
1AA	1c	1A	1e	1a
2E	2B	2G#	2e	2b
=146	=146	=146	=146	=146
1AA	2A	1A	1.e	1cc
.	2E	.	.	.
2E	2G	2B	.	2b
=147	=147	=147	=147	=147
2.A	2A	1c	1.e	1a
.	2r	.	.	.
8G#	.	.	.	.
8F#	.	.	.	.
2G#	2r	2B	.	2r
=148	=148	=148	=148	=148
2A	2r	1.A	2r	1r
1D	2d	.	2f	.
.	2c	.	2e	2r
=149	=149	=149	=149	=149
1r	2B-	1r	2d	2dd
.	2A	.	2.e	2cc
2r	2G	2r	.	2b-
.	.	.	8d	.
.	.	.	8e	.
=150	=150	=150	=150	=150
1r	2F	1r	2f	2a
.	2c	.	2e	2g
2r	[2d	2r	4d	[2f
.	.	.	4e	.
=151	=151	=151	=151	=151
1r	2d]	1r	2.f	2f]
.	1c	.	.	1g
.	.	.	8e	.
.	.	.	8d	.
2r	.	2r	2e	.
=152	=152	=152	=152	=152
2D	2A	2d	2f	1f
2F	2A	2c	2f	.
2G	2G	2B-	2d	2r
=153	=153	=153	=153	=153
2D	2F	2A	2d	1r
2E	2G	2G	2c	.
[2F	[2A	[2F	2c	2r
=154	=154	=154	=154	=154
2F]	4A]	2F]	2.f	1r
.	4B	.	.	.
1C	1c	1G	.	.
.	.	.	8e	.
.	.	.	8d	.
.	.	.	2e	2r
=155	=155	=155	=155	=155
1D	2A	2F	2f	1d
.	2r	2A	2f	.
2AA	2r	2A	2e	2c
=156	=156	=156	=156	=156
1D	1r	1A	1f	1d
2C	2r	2A	2e	2e
=157	=157	=157	=157	=157
2BB-	1r	2D	2d	2g
2AA	.	2E	2c	2a
2GG	2r	2G	2B-	2d
=158	=158	=158	=158	=158
2D	1r	1.A	2.d	2f
1AA	.	.	.	1e
.	.	.	4c#	.
.	2r	.	2c#	.
=159	=159	=159	=159	=159
2r	1D	2F	2d	1d
2GG	.	2G	2r	.
2AA	2C	2F	[2A	2r
=160	=160	=160	=160	=160
1BB-	1D	2F	2A]	1d
.	.	2D	2G	.
2AA	2E	2r	2A	2c
=161	=161	=161	=161	=161
2GG	1G	2r	2B	2d
2C	.	2r	1c	2e
2FF	2A	2F	.	2f
=162	=162	=162	=162	=162
2BB-	1D	2F	1d	2f
2GG	.	2B-	.	2g
[2D	[2F	4A	2d	[2a
.	.	4G	.	.
=163	=163	=163	=163	=163
2D]	2F]	4F	2.d	1.a]
.	.	4G	.	.
1AA	1E	1A	.	.
.	.	.	8c#	.
.	.	.	8B	.
.	.	.	2c#	.
=164	=164	=164	=164	=164
[1.D	[1.D	[1.A	[1.d	[1.f#
=165	=165	=165	=165	=165
2D_	2D_	2A_	2d_	2f#_
1D_	1D_	1A_	1d_	1f#_
=166	=166	=166	=166	=166
1D]	1D]	1A]	1d]	1f#]
*-	*-	*-	*-	*-
!!!CDT: 1525/^1526/-1594/2/2
!!!OCY: Italia
!!!AGN: Mass (Paraphrase)
!!!AST: renaissance, vocal
!!!ASW: Gregorian Mass
!!!PWK: Masses, Book Mantuan II
!!!RNB: Cadence finals: A
!!!YOR: Le Opere Complete, v. 19, p. 1
!!!YOO: Rome, Italy: Fratelli Scalera
!!!END: 1992//
!!!EED: John Miller
!!!YEC: Copyright 2000, John Miller
!!!YEN: United States of America
!!!YEM: Rights to all derivative electronic formats reserved.
!!!YEM: Refer to licensing agreement for further details.
!!!YEM: This file must be accompanied by the licensing agreement.
!!!YEM: A copy of the licensing agreement may be found at http://www.music-cog.ohio-state.edu/HumdrumDatabases/Palestrina/license.txt
!!!EMD: converted to Humdrum by Bret Aarden
